public/static/icons/editor/inline_underline.svg

<svg height="24" viewBox="0 0 24 24" width="24" xmlns="http://www.w3.org/2000/svg"><path d="m20.8333324 20.9047624c.2891428 0 .523809.2341428.523809.523809v1.0476196c0 .2891428-.2346662.523809-.523809.523809h-17.80952336c-.28966618 0-.52380904-.2346662-.52380904-.523809v-1.0476196c0-.2896662.23414286-.523809.52380904-.523809zm-13.09523765-19.9047624c.28914286 0 .52380904.23466618.52380904.52380904v9.40814286c0 3.157 1.2330481 4.7347143 3.70071431 4.7347143 2.4215714 0 3.6326195-1.5242857 3.6326195-4.5718091v-9.57104806c0-.28914286.2346662-.52380904.523809-.52380904h3.1056677c.3095714 0 .561.25143003.561.56100146v9.21223764c0 5.7069038-2.6588572 8.5600947-7.9765714 8.5600947-5.15900004 0-7.73771433-2.7871909-7.73771433-8.3610481v-9.4112857c0-.30957143.25142857-.561.561-.561z" fill-rule="evenodd"/></svg>

<svg xmlns="http://www.w3.org/2000/svg" width="24" height="24" viewBox="0 0 24 24">
  <path fill-rule="evenodd" d="M20.8333324,20.9047624 C21.1224752,20.9047624 21.3571414,21.1389052 21.3571414,21.4285714 L21.3571414,21.4285714 L21.3571414,22.476191 C21.3571414,22.7653338 21.1224752,23 20.8333324,23 L20.8333324,23 L3.02380904,23 C2.73414286,23 2.5,22.7653338 2.5,22.476191 L2.5,22.476191 L2.5,21.4285714 C2.5,21.1389052 2.73414286,20.9047624 3.02380904,20.9047624 L3.02380904,20.9047624 Z M7.73809475,1 C8.02723761,1 8.26190379,1.23466618 8.26190379,1.52380904 L8.26190379,1.52380904 L8.26190379,10.9319519 C8.26190379,14.0889519 9.49495189,15.6666662 11.9626181,15.6666662 C14.3841895,15.6666662 15.5952376,14.1423805 15.5952376,11.0948571 L15.5952376,11.0948571 L15.5952376,1.52380904 C15.5952376,1.23466618 15.8299038,1 16.1190466,1 L16.1190466,1 L19.2247143,1 C19.5342857,1 19.7857143,1.25143003 19.7857143,1.56100146 L19.7857143,1.56100146 L19.7857143,10.7732391 C19.7857143,16.4801429 17.1268571,19.3333338 11.8091429,19.3333338 C6.65014286,19.3333338 4.07142857,16.5461429 4.07142857,10.9722857 L4.07142857,10.9722857 L4.07142857,1.561 C4.07142857,1.25142857 4.32285714,1 4.63242857,1 L4.63242857,1 Z"/>
</svg>
